icons/2_Variations/JetBrains bg.var.svg

<svg width="1024" height="1024" viewBox="0 0 1024 1024" fill="none" xmlns="http://www.w3.org/2000/svg">
<g clip-path="url(#clip0_3_137)">
<path d="M512 1024C794.77 1024 1024 794.77 1024 512C1024 229.23 794.77 0 512 0C229.23 0 0 229.23 0 512C0 794.77 229.23 1024 512 1024Z" fill="#8C72BD"/>
<path d="M258.33 367.129L276.33 350.299C278.011 353.014 280.303 355.297 283.024 356.968C285.745 358.638 288.819 359.649 292 359.919C299.213 359.919 302.82 355.109 302.82 345.489V281.779H330.47V345.499C331.056 350.535 330.495 355.639 328.83 360.427C327.164 365.216 324.436 369.565 320.851 373.15C317.266 376.736 312.917 379.463 308.128 381.129C303.339 382.795 298.236 383.355 293.2 382.769C286.509 383.653 279.704 382.659 273.546 379.897C267.388 377.135 262.12 372.714 258.33 367.129ZM337.68 382.759H418.23V358.759H364.13V343.089H412.22V321.449H364.13V305.819H417V282.999H336.48L337.68 382.759ZM453.09 382.759H480.74V306.999H510.8V282.999H423V306.999H453.06L453.09 382.759ZM260.74 505.389H312.44C335.28 505.389 349.71 494.569 349.71 477.739C349.942 472.09 348.122 466.547 344.585 462.136C341.048 457.724 336.035 454.742 330.47 453.739C335.156 452.075 339.194 448.967 342.002 444.863C344.811 440.759 346.245 435.87 346.1 430.899C346.364 424.723 344.212 418.686 340.1 414.069C332.077 408.265 322.347 405.302 312.45 405.649H260.75L260.74 505.389ZM318.45 436.859C318.45 442.859 313.64 445.279 305.23 446.479H288.39V428.479H306.39C313.6 428.479 318.39 430.879 318.39 436.899L318.45 436.859ZM322.06 474.129C322.06 480.129 317.25 483.749 308.84 483.749H287.19V465.749H308.83C317.24 465.709 322.05 468.119 322.05 474.129H322.06ZM354.52 505.389H382.17V475.329H394.17L414.61 505.389H445.87L421.87 470.529C428.021 467.972 433.259 463.622 436.904 458.047C440.55 452.472 442.433 445.929 442.31 439.269C442.585 435.085 441.977 430.889 440.527 426.955C439.076 423.02 436.815 419.434 433.89 416.429C429.531 412.456 424.387 409.44 418.792 407.575C413.196 405.709 407.272 405.037 401.4 405.599H354.51L354.52 505.389ZM382.17 453.689V429.689H400.17C408.59 429.689 414.6 433.299 414.6 441.689C414.6 448.899 409.79 453.689 400.17 453.689H382.17ZM431.46 506.589H460.3L467.51 488.589H506L513.21 506.589H543.27L501.19 405.589H474.73L431.46 506.589ZM477.14 465.709L488 438.059L498.82 465.709H477.14ZM546.87 505.379H574.52V405.599H546.86L546.87 505.379ZM581.73 506.579H609.38V451.279L651.46 505.379H675.46V405.599H647.85V458.499L607 405.599H581.73V506.579ZM724.79 506.579C750.04 506.579 765.67 494.579 765.67 474.119C765.67 454.879 751.24 447.669 728.4 442.859C715.18 439.249 711.57 438.049 711.57 433.239C711.57 429.629 713.97 427.239 721.19 427.239C731.109 427.876 740.668 431.202 748.84 436.859L763.27 417.619C751.57 408.64 737.132 403.971 722.39 404.399C698.39 404.399 683.92 418.829 683.92 436.859C683.92 457.299 699.55 463.309 721.19 468.119C734.41 471.729 738.02 472.929 738.02 477.739C738.02 482.549 733.21 484.949 726.02 484.949C714.074 485.184 702.48 480.898 693.56 472.949L677.93 490.949C684.304 496.548 691.733 500.816 699.781 503.502C707.828 506.188 716.331 507.237 724.79 506.589V506.579ZM260.74 742.219H490.36V703.749H260.74V742.219Z" fill="white"/>
</g>
<defs>
<clipPath id="clip0_3_137">
<rect width="1024" height="1024" fill="white"/>
</clipPath>
</defs>
</svg>

<svg xmlns="http://www.w3.org/2000/svg" width="1024" height="1024" fill="none">
   <g clip-path="url(#a)">
      <path fill="#8C72BD" d="M512 1024c282.77 0 512-229.23 512-512S794.77 0 512 0 0 229.23 0 512s229.23 512 512 512Z"/>
      <path fill="#fff" d="m258.33 367.129 18-16.83a20.473 20.473 0 0 0 15.67 9.62c7.213 0 10.82-4.81 10.82-14.43v-63.71h27.65v63.72a33.61 33.61 0 0 1-37.27 37.27 36.381 36.381 0 0 1-34.87-15.64Zm79.35 15.63h80.55v-24h-54.1v-15.67h48.09v-21.64h-48.09v-15.63H417v-22.82h-80.52l1.2 99.76Zm115.41 0h27.65v-75.76h30.06v-24H423v24h30.06l.03 75.76Zm-192.35 122.63h51.7c22.84 0 37.27-10.82 37.27-27.65a23.407 23.407 0 0 0-19.24-24 23.503 23.503 0 0 0 15.63-22.84 23.779 23.779 0 0 0-6-16.83 44.513 44.513 0 0 0-27.65-8.42h-51.7l-.01 99.74Zm57.71-68.53c0 6-4.81 8.42-13.22 9.62h-16.84v-18h18c7.21 0 12 2.4 12 8.42l.06-.04Zm3.61 37.27c0 6-4.81 9.62-13.22 9.62h-21.65v-18h21.64c8.41-.04 13.22 2.37 13.22 8.38h.01Zm32.46 31.26h27.65v-30.06h12l20.44 30.06h31.26l-24-34.86a33.188 33.188 0 0 0 20.44-31.26 29.933 29.933 0 0 0-8.42-22.84 42.246 42.246 0 0 0-32.49-10.83h-46.89l.01 99.79Zm27.65-51.7v-24h18c8.42 0 14.43 3.61 14.43 12 0 7.21-4.81 12-14.43 12h-18Zm49.29 52.9h28.84l7.21-18H506l7.21 18h30.06l-42.08-101h-26.46l-43.27 101Zm45.68-40.88 10.86-27.65 10.82 27.65h-21.68Zm69.73 39.67h27.65v-99.78h-27.66l.01 99.78Zm34.86 1.2h27.65v-55.3l42.08 54.1h24v-99.78h-27.61v52.9l-40.85-52.9h-25.27v100.98Zm143.06 0c25.25 0 40.88-12 40.88-32.46 0-19.24-14.43-26.45-37.27-31.26-13.22-3.61-16.83-4.81-16.83-9.62 0-3.61 2.4-6 9.62-6a54.745 54.745 0 0 1 27.65 9.62l14.43-19.24a64.09 64.09 0 0 0-40.88-13.22c-24 0-38.47 14.43-38.47 32.46 0 20.44 15.63 26.45 37.27 31.26 13.22 3.61 16.83 4.81 16.83 9.62s-4.81 7.21-12 7.21a47.389 47.389 0 0 1-32.46-12l-15.63 18a63.635 63.635 0 0 0 46.86 15.64v-.01Zm-464.05 235.64h229.62v-38.47H260.74v38.47Z"/>
   </g>
   <defs>
      <clipPath id="a">
         <path fill="#fff" d="M0 0h1024v1024H0z"/>
      </clipPath>
   </defs>
</svg>
